!!!OTL: Der Holderstrauch (3-42), S. 111
!!!id: K1175
**kern
*clefG2
*k[b-]
*F:
{4c
=1
8.a
16g
4.f
8cc
=2
8.cc
16b-
4a
4cc
=3
8b-
8a
4g
8f
8g
=4
4.a}
8r
=5
{4f
=6
8.dd
16cc
4.b-
8dd
=7
8.cc
16b-
4a
4cc
=8
8.b-
8a
8.g
8f
8g
=9
4.a}
8r
=10
{4f
=11
8.dd
16cc
4.b-
8dd
=12
8.cc
16b-
4a
4cc
=13
8.b-
16a
4g
8a
8g
=14
4.f}
8r
==
*-
!!!minrhy: 16
!!!meters: 3/4 ]  ZZ[3
!!!cut: Der Holderstrauch (3-42), S. 111
!!!reg: Luxemburg
!!!trd: KINTZELE, Guillaume: An der Ucht, Bd. 3 Luxemburg 1928
!!!rhy1: X__  X_.XX__.X_  X_.XX__X__  X_X_X__X_X_  X__.0_
!!!rhy2: X__  X_.XX__.X_  X_.XX__X__  X_.X_X_.X_X_  X__.0_
!!!key: K1175  16  F 3/4 ]  ZZ[3
!!!mod: SECHSTONSKALA DUR ?]  AMBITUS[9
!!!kad: 331
!!!akz: 3543_6543_6541_
!!!fot: 'a__b__bw_
!!!for: 'a__b__c__
!!!fok: '~a_~a_^__
!! PHRAS[AUFTAKTIG]
!!!fkt: Treue, Trennung
!!!bem: in der Quelle mit einer 2. Stimme versehen
!! KINTZELE
!! PR[19] 2K[7] 2G[13] 3K[7] 3G[7] 4A[4] 4Ü[0] 5A[0] 6K[0] 6G[0]
!! 7K[0] 7G[0] 8A[0] MEHR[0] SI[39] ABS[54] SR[20] SP[19]
!! ST[16] 2k[7] 2g[20] 3k[11] 3g[4] 4d[0] 4ü[0] 5d[0] 6k[0] 6g[0]
!! 7k[0] 7g[0] 8d[0] mehr[0] si[43] dm[-4] sr[28] sp[15]
!! 1F[13] 2F[29] 3F[24] 4F[7] LF[0] 2P[13] 3P[15] 4P[0] TRI[0] DF[6] AB[55]
!! TF[0] U3K[0] U3[0] U4[0] U4Ü[0] U5[0] U6K[0] U6[0] U7K[0] U7[0]
!! N1[5] N2K[0] N2[5] N3K[0] N3[25] N4[18] N4Ü[4] N5[25] N6K[0] N6[11]
!!!n7k: 0] N7[2] O1[2] O2K[0] O2[2] O3K[0] O3[0] HÖ[0
